X:88
%%vocalfont Baskerville10Pro 11
%%pagewidth 7.5in
%%score 1 2
T:Phillida flouts me
M:3/8
L:1/8
K:Bb
%%score 1 2
V:1 clef-treble
V:2 clef-bass octave=-1
V:1
([B,D]/[CE]/)[DF][DF]|[EG][DF][DB]|([B,D]/E/)[B,F][DF]|[A,F]2[B,D]:||:Bcd&G3|
w:O* what a plague is love! I* can-not bear it; It so tor-
w:She* will in-constant* prove I* great-ly fear it: She wa-vers
V:2
B,3|B,3|B,/C/DB,|F,2B,:||:[Gd]3|
V:1
d>cB&^F2G|BcB&=E3|([FAf]2[FBd]):||[Dd][Ec][FB]|[F3/2A3/2][EG]/[DF]&B,x2|[BD]/E/[B,F][DF]|
w:ments my mind, That my heart fail-eth; Please her the best I may, She* loves still
w:with the wind As a ship sail-eth.||||
V:2
[DAd]2[GBd]|[GB]3|[Fc]2[Bd]:||[B,B][CA][DB]|E/F/G/A/B|B,/C/DB,|
V:1
[Ee][Fc][Fd]|[Dd][Ec][FB]|[F3/2A3/2][EG]/[DF]&B,x2|([B,D]/E/)[B,F][DF]|[A,F]2[B,D]||
w:to gain-say, A-lack, and well a-day! Phil-*li-da flouts me.
V:2
G,A,B,|[B,B][CA][DB]|E/F/G/A/B|B,/C/DB,|(F,2B,)||

